X:4
T:Maggie Pickin's (x3) - Turn Hill (x3)
D:Dan Brouder: The Lark's Air (2011)
R:fling
M:2/2
Q:1/2=80
K:G
|: GEDE GAB2 | (3cBA (3BAG AGEF | GEDE GABd |1 (3efg dB ABG2 :|2 (3efg dB ABGB |
|: (3cBc ec (3BAB dB | AcBG AGE2 | GEDE GABd | (3efg dB ABG2 :|
%
|: GEDE GAB2 | (3cBA (3BAG AGEF | GEDE GABd |1 (3efg dB ABG2 :|2 (3efg dB ABGB |
|: (3cBc ec (3BAB dB | AcBG AGE2 | GEDE GABd | (3efg dB ABG2 :|
%
|: GEDE GAB2 | (3cBA (3BAG AGEF | GEDE GABd |1 (3efg dB ABG2 :|2 (3efg dB ABGB |
|: (3cBc ec (3BAB dB | AcBG AGE2 | GEDE GABd | (3efg dB ABG2 :|
%
% Turn Hill
%
|: (3efg ed Bdg2 | GBdB GBd2 | (3efg ed Bdga |1 gede BAag :|2 gede BAA2 |
|: agab aga2 | gega geg2 | agab agab |1 gede BAA2 :|2 gede BAag |
%
|: (3efg ed Bdg2 | GBdB GBd2 | (3efg ed Bdga |1 gede BAag :|2 gede BAA2 |
|: agab aga2 | gega geg2 | agab agab |1 gede BAA2 :|2 gede BAag |
%
|: (3efg ed Bdg2 | GBdB GBd2 | (3efg ed Bdga |1 gede BAag :|2 gede BAA2 |
|: agab aga2 | gega geg2 | agab agab |1 gede BAA2 :|2 gedB BAGB | A8 ||

